brandFactory_export/2.Regular/Balon_Deporte_2Regular.svg

<?xml version="1.0" encoding="UTF-8"?>
<svg width="24px" height="24px" viewBox="0 0 24 24" version="1.1" xmlns="http://www.w3.org/2000/svg" xmlns:xlink="http://www.w3.org/1999/xlink">
    <title>2.Regular/Balon_Deporte_2Regular</title>
    <g id="Symbols" stroke="none" stroke-width="1" fill="none" fill-rule="evenodd">
        <g id="2.Regular/Balon_Deporte_2Regular" fill="#5CB615" fill-rule="nonzero">
            <path d="M18.6285714,19.5226891 C17.4621849,17.7142857 16.7294118,15.2 16.5983193,12.5176471 L22.0773109,12.5176471 C21.892437,15.3008403 20.5983193,17.7747899 18.6285714,19.5226891 M12.594958,22.0739496 L12.594958,12.5142857 L15.0857143,12.5142857 C15.2268908,15.5294118 16.0705882,18.3831933 17.4285714,20.4369748 C15.9865546,21.3882353 14.3193277,21.9495798 12.594958,22.0739496 M8.47394958,12.5142857 L11.0890756,12.5142857 L11.0890756,22.0840336 C9.3210084,21.9596639 7.61344538,21.3815126 6.13445378,20.4067227 C7.5092437,18.3361345 8.33277311,15.5428571 8.47394958,12.5142857 M1.5394958,12.5142857 L6.96470588,12.5142857 C6.83697479,15.1697479 6.10084034,17.6705882 4.94453782,19.4789916 C2.94789916,17.6907563 1.72773109,15.1932773 1.5394958,12.5142857 M5.07563025,4.04369748 C6.20168067,5.88235294 6.87731092,8.35630252 6.97478992,11.0084034 L1.54957983,11.0084034 C1.76134454,8.31260504 3.02857143,5.80840336 5.07563025,4.04369748 M11.0890756,1.54957983 L11.0890756,11.0084034 L8.48403361,11.0084034 C8.38319328,8.02352941 7.59663866,5.22016807 6.28235294,3.13613445 C7.72436975,2.20840336 9.37815126,1.66386555 11.0890756,1.54957983 M15.0890756,11.0084034 L12.5983193,11.0084034 L12.5983193,1.54957983 C14.2756303,1.67394958 15.892437,2.21512605 17.3109244,3.11932773 C15.9831933,5.20672269 15.189916,8.01344538 15.0890756,11.0084034 M22.0773109,11.0084034 L16.5983193,11.0084034 C16.6991597,8.37310924 17.394958,5.84201681 18.5210084,4.01344538 C20.5815126,5.78151261 21.8621849,8.29579832 22.0773109,11.0084034 M11.8117647,0 C5.29747899,0 0,5.30756303 0,11.8117647 C0,18.3260504 5.29747899,23.6235294 11.8117647,23.6235294 C18.3260504,23.6235294 23.6235294,18.3260504 23.6235294,11.8117647 C23.6235294,5.30756303 18.3260504,0 11.8117647,0" id="Balon_Deporte_2Regular"></path>
        </g>
    </g>
</svg>

<svg width="24" height="24" viewBox="0 0 24 24" xmlns="http://www.w3.org/2000/svg"><path d="M18.629 19.523c-1.167-1.809-1.9-4.323-2.03-7.005h5.478a10.256 10.256 0 01-3.448 7.005m-6.034 2.55v-9.559h2.49c.142 3.015.986 5.87 2.344 7.923a10.1 10.1 0 01-4.834 1.637m-4.121-9.56h2.615v9.57a10.323 10.323 0 01-4.955-1.677c1.375-2.07 2.199-4.864 2.34-7.893m-6.935 0h5.426c-.128 2.656-.864 5.157-2.02 6.965a10.316 10.316 0 01-3.406-6.965m3.537-8.47c1.126 1.838 1.801 4.312 1.899 6.964H1.55a10.256 10.256 0 013.526-6.964m6.013-2.494v9.458H8.484c-.1-2.984-.887-5.788-2.202-7.872A10.13 10.13 0 0111.09 1.55m4 9.458H12.6V1.55c1.677.124 3.293.665 4.712 1.57-1.328 2.087-2.121 4.893-2.222 7.888m6.988 0h-5.479c.101-2.635.797-5.166 1.923-6.995a10.29 10.29 0 013.556 6.995M11.812 0C5.297 0 0 5.308 0 11.812c0 6.514 5.297 11.812 11.812 11.812 6.514 0 11.812-5.298 11.812-11.812C23.624 5.308 18.326 0 11.812 0" fill="#5CB615" fill-rule="nonzero"/></svg>
